assets/images/chicons/music.svg

<svg width="180" height="150" viewBox="0 0 180 150" fill="none" xmlns="http://www.w3.org/2000/svg">
<g filter="url(#filter0_dd)">
<path d="M20 19C20 17.3431 21.3431 16 23 16H49.7317C50.284 16 50.7317 16.4477 50.7317 17V124.268C50.7317 124.821 50.284 125.268 49.7317 125.268H23C21.3431 125.268 20 123.925 20 122.268V19Z" fill="white"/>
<path d="M21 19C21 17.8954 21.8954 17 23 17H49.7317L49.7317 124.268H23C21.8954 124.268 21 123.373 21 122.268V19Z" stroke="black" stroke-opacity="0.2" stroke-width="2"/>
<mask id="path-3-inside-1" fill="white">
<rect x="48.1707" y="16" width="29.0244" height="109.268" rx="1"/>
</mask>
<rect x="48.1707" y="16" width="29.0244" height="109.268" rx="1" fill="white" stroke="black" stroke-opacity="0.2" stroke-width="4" mask="url(#path-3-inside-1)"/>
<mask id="path-4-inside-2" fill="white">
<rect x="74.6343" y="16" width="29.0244" height="109.268" rx="1"/>
</mask>
<rect x="74.6343" y="16" width="29.0244" height="109.268" rx="1" fill="white" stroke="black" stroke-opacity="0.2" stroke-width="4" mask="url(#path-4-inside-2)"/>
<path d="M101.098 17C101.098 16.4477 101.545 16 102.098 16H128.829C130.486 16 131.829 17.3431 131.829 19V122.268C131.829 123.925 130.486 125.268 128.829 125.268H102.098C101.545 125.268 101.098 124.821 101.098 124.268V17Z" fill="white"/>
<path d="M102.098 17L128.829 17C129.934 17 130.829 17.8954 130.829 19V122.268C130.829 123.373 129.934 124.268 128.829 124.268H102.098L102.098 17Z" stroke="black" stroke-opacity="0.2" stroke-width="2"/>
<path d="M129.268 17C129.268 16.4477 129.716 16 130.268 16H157C158.657 16 160 17.3431 160 19V122.268C160 123.925 158.657 125.268 157 125.268H130.268C129.716 125.268 129.268 124.821 129.268 124.268V17Z" fill="white"/>
<path d="M130.268 17L157 17C158.105 17 159 17.8954 159 19V122.268C159 123.373 158.105 124.268 157 124.268H130.268L130.268 17Z" stroke="black" stroke-opacity="0.2" stroke-width="2"/>
<g filter="url(#filter1_d)">
<path d="M40.4878 16H59.2683V85.7073C59.2683 86.8119 58.3729 87.7073 57.2683 87.7073H42.4878C41.3832 87.7073 40.4878 86.8119 40.4878 85.7073V16Z" fill="black"/>
</g>
<g filter="url(#filter2_d)">
<path d="M66.9512 16H85.7317V85.7073C85.7317 86.8119 84.8362 87.7073 83.7317 87.7073H68.9512C67.8466 87.7073 66.9512 86.8119 66.9512 85.7073V16Z" fill="black"/>
</g>
<g filter="url(#filter3_d)">
<path d="M120.732 16H139.512V85.7073C139.512 86.8119 138.617 87.7073 137.512 87.7073H122.732C121.627 87.7073 120.732 86.8119 120.732 85.7073V16Z" fill="black"/>
</g>
</g>
<defs>
<filter id="filter0_dd" x="0" y="0" width="180" height="149.268" filterUnits="userSpaceOnUse" color-interpolation-filters="sRGB">
<feFlood flood-opacity="0" result="BackgroundImageFix"/>
<feColorMatrix in="SourceAlpha" type="matrix" values="0 0 0 0 0 0 0 0 0 0 0 0 0 0 0 0 0 0 127 0"/>
<feOffset dy="4"/>
<feGaussianBlur stdDeviation="10"/>
<feColorMatrix type="matrix" values="0 0 0 0 0 0 0 0 0 0 0 0 0 0 0 0 0 0 0.1 0"/>
<feBlend mode="normal" in2="BackgroundImageFix" result="effect1_dropShadow"/>
<feColorMatrix in="SourceAlpha" type="matrix" values="0 0 0 0 0 0 0 0 0 0 0 0 0 0 0 0 0 0 127 0"/>
<feOffset dy="4"/>
<feColorMatrix type="matrix" values="0 0 0 0 0.521569 0 0 0 0 0.556863 0 0 0 0 0.603922 0 0 0 1 0"/>
<feBlend mode="normal" in2="effect1_dropShadow" result="effect2_dropShadow"/>
<feBlend mode="normal" in="SourceGraphic" in2="effect2_dropShadow" result="shape"/>
</filter>
<filter id="filter1_d" x="36.4878" y="16" width="26.7805" height="79.7073" filterUnits="userSpaceOnUse" color-interpolation-filters="sRGB">
<feFlood flood-opacity="0" result="BackgroundImageFix"/>
<feColorMatrix in="SourceAlpha" type="matrix" values="0 0 0 0 0 0 0 0 0 0 0 0 0 0 0 0 0 0 127 0"/>
<feOffset dy="4"/>
<feGaussianBlur stdDeviation="2"/>
<feColorMatrix type="matrix" values="0 0 0 0 0 0 0 0 0 0 0 0 0 0 0 0 0 0 0.25 0"/>
<feBlend mode="normal" in2="BackgroundImageFix" result="effect1_dropShadow"/>
<feBlend mode="normal" in="SourceGraphic" in2="effect1_dropShadow" result="shape"/>
</filter>
<filter id="filter2_d" x="62.9512" y="16" width="26.7805" height="79.7073" filterUnits="userSpaceOnUse" color-interpolation-filters="sRGB">
<feFlood flood-opacity="0" result="BackgroundImageFix"/>
<feColorMatrix in="SourceAlpha" type="matrix" values="0 0 0 0 0 0 0 0 0 0 0 0 0 0 0 0 0 0 127 0"/>
<feOffset dy="4"/>
<feGaussianBlur stdDeviation="2"/>
<feColorMatrix type="matrix" values="0 0 0 0 0 0 0 0 0 0 0 0 0 0 0 0 0 0 0.25 0"/>
<feBlend mode="normal" in2="BackgroundImageFix" result="effect1_dropShadow"/>
<feBlend mode="normal" in="SourceGraphic" in2="effect1_dropShadow" result="shape"/>
</filter>
<filter id="filter3_d" x="116.732" y="16" width="26.7805" height="79.7073" filterUnits="userSpaceOnUse" color-interpolation-filters="sRGB">
<feFlood flood-opacity="0" result="BackgroundImageFix"/>
<feColorMatrix in="SourceAlpha" type="matrix" values="0 0 0 0 0 0 0 0 0 0 0 0 0 0 0 0 0 0 127 0"/>
<feOffset dy="4"/>
<feGaussianBlur stdDeviation="2"/>
<feColorMatrix type="matrix" values="0 0 0 0 0 0 0 0 0 0 0 0 0 0 0 0 0 0 0.25 0"/>
<feBlend mode="normal" in2="BackgroundImageFix" result="effect1_dropShadow"/>
<feBlend mode="normal" in="SourceGraphic" in2="effect1_dropShadow" result="shape"/>
</filter>
</defs>
</svg>

<svg width="180" height="150" fill="none" xmlns="http://www.w3.org/2000/svg"><g filter="url(#filter0_dd)"><path d="M20 19a3 3 0 0 1 3-3h26.732a1 1 0 0 1 1 1v107.268a1 1 0 0 1-1 1H23a3 3 0 0 1-3-3V19z" fill="#fff"/><path d="M21 19a2 2 0 0 1 2-2h26.732v107.268H23a2 2 0 0 1-2-2V19z" stroke="#000" stroke-opacity=".2" stroke-width="2"/><mask id="a" fill="#fff"><rect x="48.171" y="16" width="29.024" height="109.268" rx="1"/></mask><rect x="48.171" y="16" width="29.024" height="109.268" rx="1" fill="#fff" stroke="#000" stroke-opacity=".2" stroke-width="4" mask="url(#a)"/><mask id="b" fill="#fff"><rect x="74.634" y="16" width="29.024" height="109.268" rx="1"/></mask><rect x="74.634" y="16" width="29.024" height="109.268" rx="1" fill="#fff" stroke="#000" stroke-opacity=".2" stroke-width="4" mask="url(#b)"/><path d="M101.098 17a1 1 0 0 1 1-1h26.731a3 3 0 0 1 3 3v103.268a3 3 0 0 1-3 3h-26.731a1 1 0 0 1-1-1V17z" fill="#fff"/><path d="M102.098 17h26.731a2 2 0 0 1 2 2v103.268a2 2 0 0 1-2 2h-26.731V17z" stroke="#000" stroke-opacity=".2" stroke-width="2"/><path d="M129.268 17a1 1 0 0 1 1-1H157a3 3 0 0 1 3 3v103.268a3 3 0 0 1-3 3h-26.732a1 1 0 0 1-1-1V17z" fill="#fff"/><path d="M130.268 17H157a2 2 0 0 1 2 2v103.268a2 2 0 0 1-2 2h-26.732V17z" stroke="#000" stroke-opacity=".2" stroke-width="2"/><path d="M40.488 16h18.78v69.707a2 2 0 0 1-2 2h-14.78a2 2 0 0 1-2-2V16z" fill="#000" filter="url(#filter1_d)"/><path d="M66.951 16h18.78v69.707a2 2 0 0 1-2 2h-14.78a2 2 0 0 1-2-2V16z" fill="#000" filter="url(#filter2_d)"/><path d="M120.732 16h18.78v69.707a2 2 0 0 1-2 2h-14.78a2 2 0 0 1-2-2V16z" fill="#000" filter="url(#filter3_d)"/></g><defs><filter id="filter0_dd" x="0" y="0" width="180" height="149.268" filterUnits="userSpaceOnUse" color-interpolation-filters="sRGB"><feFlood flood-opacity="0" result="BackgroundImageFix"/><feColorMatrix in="SourceAlpha" values="0 0 0 0 0 0 0 0 0 0 0 0 0 0 0 0 0 0 127 0"/><feOffset dy="4"/><feGaussianBlur stdDeviation="10"/><feColorMatrix values="0 0 0 0 0 0 0 0 0 0 0 0 0 0 0 0 0 0 0.1 0"/><feBlend in2="BackgroundImageFix" result="effect1_dropShadow"/><feColorMatrix in="SourceAlpha" values="0 0 0 0 0 0 0 0 0 0 0 0 0 0 0 0 0 0 127 0"/><feOffset dy="4"/><feColorMatrix values="0 0 0 0 0.521569 0 0 0 0 0.556863 0 0 0 0 0.603922 0 0 0 1 0"/><feBlend in2="effect1_dropShadow" result="effect2_dropShadow"/><feBlend in="SourceGraphic" in2="effect2_dropShadow" result="shape"/></filter><filter id="filter1_d" x="36.488" y="16" width="26.78" height="79.707" filterUnits="userSpaceOnUse" color-interpolation-filters="sRGB"><feFlood flood-opacity="0" result="BackgroundImageFix"/><feColorMatrix in="SourceAlpha" values="0 0 0 0 0 0 0 0 0 0 0 0 0 0 0 0 0 0 127 0"/><feOffset dy="4"/><feGaussianBlur stdDeviation="2"/><feColorMatrix values="0 0 0 0 0 0 0 0 0 0 0 0 0 0 0 0 0 0 0.25 0"/><feBlend in2="BackgroundImageFix" result="effect1_dropShadow"/><feBlend in="SourceGraphic" in2="effect1_dropShadow" result="shape"/></filter><filter id="filter2_d" x="62.951" y="16" width="26.78" height="79.707" filterUnits="userSpaceOnUse" color-interpolation-filters="sRGB"><feFlood flood-opacity="0" result="BackgroundImageFix"/><feColorMatrix in="SourceAlpha" values="0 0 0 0 0 0 0 0 0 0 0 0 0 0 0 0 0 0 127 0"/><feOffset dy="4"/><feGaussianBlur stdDeviation="2"/><feColorMatrix values="0 0 0 0 0 0 0 0 0 0 0 0 0 0 0 0 0 0 0.25 0"/><feBlend in2="BackgroundImageFix" result="effect1_dropShadow"/><feBlend in="SourceGraphic" in2="effect1_dropShadow" result="shape"/></filter><filter id="filter3_d" x="116.732" y="16" width="26.78" height="79.707" filterUnits="userSpaceOnUse" color-interpolation-filters="sRGB"><feFlood flood-opacity="0" result="BackgroundImageFix"/><feColorMatrix in="SourceAlpha" values="0 0 0 0 0 0 0 0 0 0 0 0 0 0 0 0 0 0 127 0"/><feOffset dy="4"/><feGaussianBlur stdDeviation="2"/><feColorMatrix values="0 0 0 0 0 0 0 0 0 0 0 0 0 0 0 0 0 0 0.25 0"/><feBlend in2="BackgroundImageFix" result="effect1_dropShadow"/><feBlend in="SourceGraphic" in2="effect1_dropShadow" result="shape"/></filter></defs></svg>
